X:9061
T:La Rosina nel Rosal (Arrg.)
C:Trad
M:2/4
L:1/8
Q:1/4=150
K:Dm
|: "Dm"D3 F|"Dm"A3 A|"Dm"B3 G|"Dm"A4|"Gm"G3 E|"Dm"F3 D|"A"E3 ^C|"Dm"D2 D2 :|
|: "Gm"GG FE|"Dm"FF ED|"A"EE D^C|"Dm"D2 D2 :|



Xiraldilla, transcrita en Uviéu
O:Uviéu
A:Asturies
Z:Cancioneru de Torner 274
M:2/4
L:1/8
Q:1/4=160
W:La rosina en el rosal
W:siempre está coloreando;
W:como yes tan buena moza,
W:ya me vas enamorando.
W:
W:Éntrala y no temas,
W:soldadito veterano;
W:éntrala y no temas,
W:que yo te daré la mano.
K:Gm
|G3 B|d3 d|e3 c|d4|
c3 A|B3 G|A3 ^F|G2 G2|
G3 B|d3 d|e3 c|d2 d2|
c3 A|B3 G|A3 ^F|G2 G2|
cc BA|BB AG|AA G^F|G2 G2|
cc BA|BB AG|AA G^F|G2 G2||



